X:636
T:Fireman's Reel
M:2/4
L:1/16
S:April Limber, New England Tradition
Z:<http://tunes.nhcountrydance.com>.
K:A
|:E2 | "A" AcBc AcE2| "A" A2ce f2e2|\
"A" agae "F#m" fecA|"Bm" BcBA "E7" F2EF|
"A" AcBc AcE2|"A" A2ce "A7"f2e2|\
"D" agae "E7" fecA|"E7" B2A2 "A" A2:|
(3(efg)|"A" a2ab agfe|"A" fece fece|\
"A"a2ab "F#m" agfe|"Bm" fecA "E7" B2(3(efg)|
"A" a2ab agfe|"A"fece "A7" fece|\
"D" f2af "E7" ecBA|"E7" GEFG "A" A2:|

